X: 1
T: the Cardin' o't
S: Scots Musical Museum #437
R: reel
S: page in Concord Slow Scottish Session collection
S: handwritten page labelled "Potomac Valley Scottish Fiddle Club"
Z: 2015 John Chambers <jc:trillian.mit.edu>
M: C|
L: 1/8
K: G
BA |\
"G"G3A B3c | d2ge dBAG |\
"C"c3e "G"dBAG | "D"FGAB A3B |\
"C"cBcd efge |
"G"dBAG "D"F2ED |\
"G"G3A "D7"BdAc | "G"B2G2 G2 :: ge |\
"G"dBGB d3e | "G"dBGB d2cB |
"C"cBcd efga | "D"f2d2 d2cB |\
"C"cBcd efge | "G"dcBA "D7"F2ED |\
"G"G3A "D7"BdAc | "G"B2G2 G2 :|
